icons/EmojiSad_filled.svg

<svg width="24" height="24" viewBox="0 0 24 24" fill="none" xmlns="http://www.w3.org/2000/svg">
<path fill-rule="evenodd" clip-rule="evenodd" d="M2.25,12c0,-5.38478 4.36522,-9.75 9.75,-9.75c5.3848,0 9.75,4.36522 9.75,9.75c0,5.3848 -4.3652,9.75 -9.75,9.75c-5.38478,0 -9.75,-4.3652 -9.75,-9.75zM8.25,9c-0.69036,0 -1.25,0.55964 -1.25,1.25c0,0.6904 0.55964,1.25 1.25,1.25c0.69036,0 1.25,-0.5596 1.25,-1.25c0,-0.69036 -0.55964,-1.25 -1.25,-1.25zM15.75,11.5c0.6904,0 1.25,-0.5596 1.25,-1.25c0,-0.69036 -0.5596,-1.25 -1.25,-1.25c-0.6904,0 -1.25,0.55964 -1.25,1.25c0,0.6904 0.5596,1.25 1.25,1.25zM15.4697,17.0303c0.2929,0.2929 0.7677,0.2929 1.0606,0c0.2929,-0.2929 0.2929,-0.7677 0,-1.0606c-1.1724,-1.1725 -2.8814,-1.7197 -4.5303,-1.7197c-1.6489,0 -3.35785,0.5472 -4.53033,1.7197c-0.29289,0.2929 -0.29289,0.7677 0,1.0606c0.29289,0.2929 0.76777,0.2929 1.06066,0c0.82752,-0.8275 2.11857,-1.2803 3.46967,-1.2803c1.3511,0 2.6421,0.4528 3.4697,1.2803z" fill="#002B51"/>
</svg>

<svg width="24" height="24" viewBox="0 0 24 24" fill="none" xmlns="http://www.w3.org/2000/svg">
<path fill-rule="evenodd" clip-rule="evenodd" d="M2.25 12C2.25 6.61522 6.61522 2.25 12 2.25C17.3848 2.25 21.75 6.61522 21.75 12C21.75 17.3848 17.3848 21.75 12 21.75C6.61522 21.75 2.25 17.3848 2.25 12ZM9.5 10.25C9.5 10.9404 8.94036 11.5 8.25 11.5C7.55964 11.5 7 10.9404 7 10.25C7 9.55964 7.55964 9 8.25 9C8.94036 9 9.5 9.55964 9.5 10.25ZM15.75 11.5C16.4404 11.5 17 10.9404 17 10.25C17 9.55964 16.4404 9 15.75 9C15.0596 9 14.5 9.55964 14.5 10.25C14.5 10.9404 15.0596 11.5 15.75 11.5ZM15.4697 17.0303C15.7626 17.3232 16.2374 17.3232 16.5303 17.0303C16.8232 16.7374 16.8232 16.2626 16.5303 15.9697C15.3579 14.7972 13.6489 14.25 12 14.25C10.3511 14.25 8.64215 14.7972 7.46967 15.9697C7.17678 16.2626 7.17678 16.7374 7.46967 17.0303C7.76256 17.3232 8.23744 17.3232 8.53033 17.0303C9.35785 16.2028 10.6489 15.75 12 15.75C13.3511 15.75 14.6421 16.2028 15.4697 17.0303Z" fill="#002B51"/>
</svg>
